projects/flag-game/flags/Kuwait.svg

<svg viewBox="0 0 1000 500" xmlns="http://www.w3.org/2000/svg"><g fill-rule="evenodd"><path d="m0 0h1000v166.667969h-1000zm0 0" fill="#007a3d"/><path d="m0 166.667969h1000v166.664062h-1000zm0 0" fill="#fff"/><path d="m0 333.332031h1000v166.667969h-1000zm0 0" fill="#ce1126"/><path d="m0 0 250 166.667969v166.664062l-250 166.667969zm0 0"/></g></svg>

<?xml version="1.0" encoding="UTF-8"?>
<svg xmlns="http://www.w3.org/2000/svg" xmlns:xlink="http://www.w3.org/1999/xlink" viewBox="0 0 1000 500" version="1.1">
<g id="surface660">
<path style=" stroke:none;fill-rule:evenodd;fill:rgb(0%,47.842407%,23.921204%);fill-opacity:1;" d="M 0 0 L 1000 0 L 1000 166.667969 L 0 166.667969 Z M 0 0 "/>
<path style=" stroke:none;fill-rule:evenodd;fill:rgb(99.998474%,99.998474%,99.998474%);fill-opacity:1;" d="M 0 166.667969 L 1000 166.667969 L 1000 333.332031 L 0 333.332031 Z M 0 166.667969 "/>
<path style=" stroke:none;fill-rule:evenodd;fill:rgb(80.783081%,6.666565%,14.901733%);fill-opacity:1;" d="M 0 333.332031 L 1000 333.332031 L 1000 500 L 0 500 Z M 0 333.332031 "/>
<path style=" stroke:none;fill-rule:evenodd;fill:rgb(0%,0%,0%);fill-opacity:1;" d="M 0 0 L 250 166.667969 L 250 333.332031 L 0 500 Z M 0 0 "/>
</g>
</svg>
